X:1
T:Title
%%score { ( 1 3 ) | 2 }
L:1/8
M:6/8
K:G
V:1 treble nm="Grand Piano"
V:3 treble 
V:2 bass 
V:1
 z3 z2[Q:1/4=100] D | G2 G G2 A | B2 B B2 c | d B2 G2 B |[M:5/8] [FA]-[FA]- [FA]3 |[M:1/8] D | %6
[M:3/4] G2 G G2 A | B2 B B2 c | d B2 [FA]2 [FA] |[M:5/8] [DG]-[DG]- [DG]3 |[M:1/8] [=FG] | %11
[M:3/4] [EG] [Ec]2 [Ec]2 [Ec] | B6 | G G2 F2 G | [FA]6 | D2 G B2 G | E2 [EA][Ec] [EB][EA] | %17
 G G2 A2 F |[M:5/8] [B,DG]-[B,DG]- [B,DG]3 |] %19
V:2
 z3 z2 [G,B,] | [G,B,D]2 [G,B,D] [G,B,D]2 [G,CD] | [G,DG]2 [G,DG] [G,DG]2 [G,A,G] | %3
 [G,B,G] [G,DG]2 [G,B,D]2 [G,DG] |[M:5/8][K:bass] [D,D]-[D,D]- [D,D]3 |[M:1/8] [D,C] | %6
[M:3/4] [G,B,D]2[K:treble] [G,B,D] [G,B,D]2 [G,CD] | [G,DG]2 [G,DG] [G,DG]2 [G,A,G] | %8
 [G,B,G] [G,DG]2[K:bass] [D,C]2 [D,C] |[M:5/8] [G,B,]-[G,B,]- [G,B,]3 |[M:1/8] [G,B,] | %11
[M:3/4] [C,G,] [C,G,]2 [C,G,]2 [C,G,] | [G,,G,]2 [G,,G,] [G,,G,]2 [G,CD] | %13
 [G,B,D] [G,B,D]2 [A,CD]2 [G,B,D] | [D,D]2 D, D,3 | %15
 [G,B,]2[K:treble] [G,B,D] [G,DG]2[K:bass] [G,B,D] | [C,G,C]2 [C,G,][A,,A,] [B,,^G,][C,A,] | %17
 [D,B,D] [D,B,D]2 [D,CD]2 [D,A,D] |[M:5/8] G,,-G,,- G,,3 |] %19
V:3
 x6 | x6 | x6 | x6 |[M:5/8] x5 |[M:1/8] x |[M:3/4] x6 | x6 | x6 |[M:5/8] x5 |[M:1/8] x | %11
[M:3/4] x6 | D2 D D2 A | x6 | z2 D D3 | x6 | x6 | x6 |[M:5/8] x5 |] %19

